src/Assets/icons/21-close-icon/close-icon-nobg.svg

<svg viewBox="0 0 2001 2000" xmlns="http://www.w3.org/2000/svg" xml:space="preserve" style="fill-rule:evenodd;clip-rule:evenodd;stroke-linejoin:round;stroke-miterlimit:2">
    <path style="fill:none" d="M0 0h2000v2000H0z" transform="translate(.45)"/>
    <path d="M1000 721.684 418.522 140.206c-38.401-38.402-100.756-38.402-139.158 0L140.206 279.364c-38.402 38.402-38.402 100.757 0 139.158L721.684 1000l-581.478 581.48c-38.402 38.4-38.402 100.75 0 139.16l139.158 139.15c38.402 38.41 100.757 38.41 139.158 0L1000 1278.32l581.48 581.47c38.4 38.41 100.75 38.41 139.16 0l139.15-139.15c38.41-38.41 38.41-100.76 0-139.16L1278.32 1000l581.47-581.478c38.41-38.401 38.41-100.756 0-139.158l-139.15-139.158c-38.41-38.402-100.76-38.402-139.16 0L1000 721.684Z" style="fill:#172d4d" transform="translate(.45)"/>
</svg>

<?xml version="1.0" encoding="UTF-8" standalone="no"?>
<!DOCTYPE svg PUBLIC "-//W3C//DTD SVG 1.1//EN" "http://www.w3.org/Graphics/SVG/1.1/DTD/svg11.dtd">
<svg width="100%" height="100%" viewBox="0 0 2001 2000" version="1.1" xmlns="http://www.w3.org/2000/svg" xmlns:xlink="http://www.w3.org/1999/xlink" xml:space="preserve" xmlns:serif="http://www.serif.com/" style="fill-rule:evenodd;clip-rule:evenodd;stroke-linejoin:round;stroke-miterlimit:2;">
    <g transform="matrix(1,0,0,1,-2272,0)">
        <g id="close-icon-nobg" transform="matrix(1,0,0,1,2272.45,0)">
            <rect x="0" y="0" width="2000" height="2000" style="fill:none;"/>
            <g>
                <path d="M1000,721.684L418.522,140.206C380.121,101.804 317.766,101.804 279.364,140.206L140.206,279.364C101.804,317.766 101.804,380.121 140.206,418.522L721.684,1000L140.206,1581.48C101.804,1619.88 101.804,1682.23 140.206,1720.64L279.364,1859.79C317.766,1898.2 380.121,1898.2 418.522,1859.79L1000,1278.32L1581.48,1859.79C1619.88,1898.2 1682.23,1898.2 1720.64,1859.79L1859.79,1720.64C1898.2,1682.23 1898.2,1619.88 1859.79,1581.48L1278.32,1000L1859.79,418.522C1898.2,380.121 1898.2,317.766 1859.79,279.364L1720.64,140.206C1682.23,101.804 1619.88,101.804 1581.48,140.206L1000,721.684Z" style="fill:rgb(23,45,77);"/>
            </g>
        </g>
    </g>
</svg>
